src/assets/icons/hero-sprite.svg

<svg xmlns="http://www.w3.org/2000/svg">
  <symbol id="chat" viewBox="0 0 24 24" fill="none" xmlns="http://www.w3.org/2000/svg">
    <rect width="24" height="24" fill="white"/>
    <path d="M21 15C21 15.5304 20.7893 16.0391 20.4142 16.4142C20.0391 16.7893 19.5304 17 19 17H7L3 21V5C3 4.46957 3.21071 3.96086 3.58579 3.58579C3.96086 3.21071 4.46957 3 5 3H19C19.5304 3 20.0391 3.21071 20.4142 3.58579C20.7893 3.96086 21 4.46957 21 5V15Z" fill="#D1FCD0" stroke="black" stroke-width="1.5" stroke-linecap="round" stroke-linejoin="round"/>
  </symbol>

  <symbol id="google-play" viewBox="0 0 25 24" fill="none" xmlns="http://www.w3.org/2000/svg">
    <path d="M13.2496 11.125L16.3996 7.75L4.17461 1.15C4.09961 1.075 3.94961 1.075 3.72461 1L13.2496 11.125Z" fill="black"/>
    <path d="M17.7496 16L22.1746 13.6C22.6996 13.3 22.9996 12.85 22.9996 12.25C22.9996 11.65 22.6996 11.125 22.1746 10.9L17.7496 8.5L14.2246 12.25L17.7496 16Z" fill="black"/>
    <path d="M2.3 1.67499C2.075 1.89999 2 2.19999 2 2.49999V22C2 22.3 2.075 22.6 2.3 22.9L12.2 12.25L2.3 1.67499Z" fill="black"/>
    <path d="M13.2496 13.375L3.72461 23.5C3.87461 23.5 4.02461 23.425 4.17461 23.35L16.3996 16.75L13.2496 13.375Z" fill="black"/>
  </symbol>

  <symbol id="apple-store" viewBox="0 0 25 24" fill="none" xmlns="http://www.w3.org/2000/svg">
    <g clip-path="url(#clip0_38_1407)">
    <path d="M9.543 24.075C7.593 24.075 6.243 22.35 5.268 20.85C2.793 17.025 2.268 12.225 4.068 9.45001C5.268 7.57501 7.218 6.45001 9.093 6.45001C10.068 6.45001 10.893 6.75001 11.568 6.97501C12.093 7.20001 12.618 7.35001 13.143 7.35001C13.593 7.35001 13.968 7.20001 14.493 6.97501C15.168 6.75001 15.993 6.45001 17.118 6.45001C18.768 6.45001 20.493 7.35001 21.693 8.85001C21.843 9.00001 21.918 9.22501 21.843 9.45001C21.768 9.67501 21.693 9.82501 21.468 9.97501C20.118 10.725 19.368 12.075 19.518 13.575C19.593 15.15 20.568 16.425 21.993 16.95C22.218 17.025 22.368 17.175 22.443 17.4C22.518 17.625 22.518 17.775 22.443 18C21.918 19.125 21.693 19.65 21.018 20.625C19.893 22.275 18.543 24 16.743 24C15.918 24 15.393 23.775 14.943 23.55C14.493 23.325 14.043 23.1 13.143 23.1C12.318 23.1 11.868 23.325 11.343 23.55C10.893 23.85 10.368 24.075 9.543 24.075Z" fill="black"/>
    <path d="M12.5429 6.6C12.4679 6.6 12.4679 6.6 12.3929 6.6C12.0179 6.6 11.7179 6.3 11.6429 6C11.4179 4.725 11.8679 3.225 12.8429 2.025C13.7429 0.9 15.2429 0.15 16.5929 0C16.9679 0 17.3429 0.225 17.4179 0.675C17.6429 2.025 17.1929 3.45 16.2179 4.65C15.3929 5.85 13.8929 6.6 12.5429 6.6Z" fill="black"/>
    </g>
    <defs>
    <clipPath id="clip0_38_1407">
    <rect width="24" height="24" fill="white" transform="translate(0.839844)"/>
    </clipPath>
    </defs>
  </symbol>
</svg>

<svg xmlns="http://www.w3.org/2000/svg">
  <symbol id="chat" viewBox="0 0 24 24" fill="none" xmlns="http://www.w3.org/2000/svg">
    <rect width="24" height="24" fill="white"/>
    <path d="M21 15C21 15.5304 20.7893 16.0391 20.4142 16.4142C20.0391 16.7893 19.5304 17 19 17H7L3 21V5C3 4.46957 3.21071 3.96086 3.58579 3.58579C3.96086 3.21071 4.46957 3 5 3H19C19.5304 3 20.0391 3.21071 20.4142 3.58579C20.7893 3.96086 21 4.46957 21 5V15Z" fill="#D1FCD0" stroke="black" stroke-width="1.5" stroke-linecap="round" stroke-linejoin="round"/>
  </symbol>

  <symbol id="google-play" fill="none" viewBox="0 0 25 24"><path fill="#000" d="m13.2496 11.125 3.15-3.375-12.22499-6.6c-.075-.075-.225-.075-.45-.15l9.52499 10.125ZM17.7496 16l4.425-2.4c.525-.3.825-.75.825-1.35 0-.6-.3-1.125-.825-1.35l-4.425-2.4-3.525 3.75 3.525 3.75ZM2.3 1.67499c-.225.225-.3.525-.3.825V22c0 .3.075.6.3.9l9.9-10.65L2.3 1.67499ZM13.2496 13.375 3.72461 23.5c.15 0 .3-.075.45-.15l12.22499-6.6-3.15-3.375Z"/></symbol>

  <symbol id="apple-store" fill="none" viewBox="0 0 25 24"><g fill="#000" clip-path="url(#a)"><path d="M9.543 24.075c-1.95 0-3.3-1.725-4.275-3.225-2.475-3.825-3-8.625-1.2-11.39999 1.2-1.875 3.15-3 5.025-3 .975 0 1.8.3 2.475.525.525.225 1.05.375 1.575.375.45 0 .825-.15 1.35-.375.675-.225 1.5-.525 2.625-.525 1.65 0 3.375.9 4.575 2.4.15.15.225.375.15.6-.075.225-.15.375-.375.525-1.35.74999-2.1 2.09999-1.95 3.59999.075 1.575 1.05 2.85 2.475 3.375.225.075.375.225.45.45.075.225.075.375 0 .6-.525 1.125-.75 1.65-1.425 2.625C19.893 22.275 18.543 24 16.743 24c-.825 0-1.35-.225-1.8-.45-.45-.225-.9-.45-1.8-.45-.825 0-1.275.225-1.8.45-.45.3-.975.525-1.8.525Z"/><path d="M12.5429 6.6h-.15c-.375 0-.675-.3-.75-.6-.225-1.275.225-2.775 1.2-3.975.9-1.125 2.4-1.875 3.75-2.025.375 0 .75.225.825.675.225 1.35-.225 2.775-1.2 3.975-.825 1.2-2.325 1.95-3.675 1.95Z"/></g><defs><clipPath id="a"><path fill="#fff" d="M0 0h24v24H0z" transform="translate(.839844)"/></clipPath></defs></symbol>

  <symbol id="ru-store" fill="none" viewBox="0 0 192 192"><rect width="192" height="192.992" y="-.496" fill="#000" stroke="#000" paint-order="stroke" rx="50" ry="50"/><g stroke="#fff" stroke-linecap="round" stroke-linejoin="round" stroke-width="4.6249"><path d="M46.853 24.746v-4.319c0-2.762 2.611-4.789 5.304-4.116l17.054 4.26a5.31 5.31 0 0 1 4.034 5.146v28.658c0 2.763-2.611 4.789-5.304 4.116l-10.09-2.52" transform="matrix(1.71818 0 0 1.79985 20.39925198 16.80933894)"/><path stroke-linecap="square" d="M30.805 31.18v-4.154c0-2.763 2.61-4.79 5.304-4.117l17.053 4.26a5.31 5.31 0 0 1 4.034 5.146v28.658c0 2.763-2.61 4.79-5.304 4.116L41.76 62.558" transform="matrix(1.71818 0 0 1.79985 20.39925198 16.80933894)"/><path d="M18.79 67.427a5.31 5.31 0 0 1-4.034-5.146V33.623c0-2.763 2.61-4.789 5.304-4.116l17.054 4.26a5.31 5.31 0 0 1 4.033 5.146V67.57c0 2.762-2.61 4.789-5.304 4.116z" transform="matrix(1.71818 0 0 1.79985 20.39925198 16.80933894)"/></g></symbol>
  <symbol id="ru-store-outlined" fill="none" viewBox="0 0 192 192"><g stroke="#000" stroke-linecap="round" stroke-linejoin="round" stroke-width="4.6249"><path d="M46.853 24.746v-4.319c0-2.762 2.611-4.789 5.304-4.116l17.054 4.26a5.31 5.31 0 0 1 4.034 5.146v28.658c0 2.763-2.611 4.789-5.304 4.116l-10.09-2.52" transform="matrix(2.5351 0 0 2.6556 -15.545 -20.844)"/><path stroke-linecap="square" d="M30.805 31.18v-4.154c0-2.763 2.61-4.79 5.304-4.117l17.053 4.26a5.31 5.31 0 0 1 4.034 5.146v28.658c0 2.763-2.61 4.79-5.304 4.116L41.76 62.558" transform="matrix(2.5351 0 0 2.6556 -15.545 -20.844)"/><path d="M18.79 67.427a5.31 5.31 0 0 1-4.034-5.146V33.623c0-2.763 2.61-4.789 5.304-4.116l17.054 4.26a5.31 5.31 0 0 1 4.033 5.146V67.57c0 2.762-2.61 4.789-5.304 4.116z" transform="matrix(2.5351 0 0 2.6556 -15.545 -20.844)"/></g></symbol>
</svg>
